X:1
T:Life and Love, 11.10.11.10
T:Life and Love, 11.10.11.10
T:William Henry Monk, 1889
T:Public Domain Courtesy of the Cyber Hymnal™
C:William Henry Monk, 1889
Z:Public Domain
Z:Courtesy of the Cyber Hymnal™
%%score ( 1 2 ) ( 3 4 )
L:1/8
Q:1/4=110
M:3/4
K:E
V:1 treble 
V:2 treble 
V:3 bass 
V:4 bass 
V:1
 [EB]2 [EG]2 [DF]2 | E4 [EB]2 | [Ec]3 [EA] [EB][Ec] | [Ec]2 [EB]4 | E2 [CE]2 [CE]2 | %5
 E3 z F[EG][GB] | [GB]2 [FA]2 [EG]2 | ([EG]2 [DF]2) (FB) | (B2 G2) [DF]2 | B4 [EB]2 | %10
 c3 z c[Fd][Fe] | [Ge]2 [Fd]2 [DB]2 | B4 [GB]2 | [Ac]3 [Fd] [Ee]2- | [Ee][FA] [EG]2 [DF]2 x | %15
 [DF]2 E4 |] %16
V:2
 x6 | E4 x2 | x6 | x6 | E2 x4 | E2 E2 x3 | x6 | x4 F2 | E4 x2 | (D2 E2) x2 | E2 F2 x3 | x6 | %12
 E2 A2 x2 | x6 | x7 | x2 E4 |] %16
V:3
 [E,G,]2 [E,B,]2 [A,B,]2 | [G,B,]4 [E,G,]2 | A,3 [C,A,] [B,,G,][A,,A,] | [E,A,]2 [E,G,]4 | %4
 [C,G,]2 [B,,G,]2 [A,,A,]2 | B,3 z E[G,,=D][G,,D] | [A,,C]4 [^A,,C]2 | [B,,B,]4 [D,B,]2 | %8
 (G,2 B,2) [A,B,]2 | B,4 [E,G,]2 | A,3 [^A,E] [A,D][A,C] x | B,2 B,2 [A,B,]2 | B,4 [E,E]2 | %13
 [A,E]3 [A,B,] [G,B,]2- | [G,B,][A,C] B,3 z A, | A,2 G,4 |] %16
V:4
 x6 | x6 | A,3 x3 | x6 | x6 | G,,2 G,,2 x3 | x6 | x6 | E,4 x2 | A,2 G,2 x2 | ^A,3 x4 | B,2 B,2 x2 | %12
 (G,2 F,2) x2 | x6 | x2 B,2 B,,2 x | E,4 x2 |] %16

